!!!OTL: Ezekiel Saw de Wheel
!!!ARE: United States of America
!!!AGN: Negro Spiritual
!!!AMD: Pentatonic
**kern
*>[A,B,A]
*>A
*clefG2
*k[b-]
*met(C)
*M4/4
*MM84
{8c/
=1
8f/
4.f/
4.f/
8f/
=2
1a}
=3
{2a/
4a/
8g/L
8f/J
=4
8a/L
8a/J
8g/L
8g/J
4f/}
{4c/
=5
8f/
4.f/
4.f/
8f/
=6
1a}
=7
{4a/
8a/L
8a/J
8g/L
8g/
8g/
8g/J
=8
2.f/}
{8c/L
8c/J
=9
8f/
4.f/
4f/
4f/
=10
2.a/}
{8f/L
8f/J
=11
8a/L
8a/J
4a/
4a/}
{8g/L
8f/J
=12
4a/
4g/
4f/}
{8d/L
8c/J
=13
2f/
4.f/
8f/
=14
1a}
=15
{4a/
8a/L
8a/J
8g/L
8g/
8g/
8g/J
=16
2.f/}
4r
!! Fine
==17||
*>B
{4dd\
8cc\L
8cc\J
4cc\
8a/L
8a/J
=18
[8a/L
8a/]
[8g/
8g/J]
2f/}
=19
{4f/
8f/L
8f/J
8g/L
8g/
8f/
8g/J
=20
2.a/}
{4cc\
=21
4dd\
4cc\
4cc\
8a/L
8a/J
=22
4a/
4g/
2f/}
=23
{4a/
8a/L
8a/J
8g/L
8g/
8g/
8g/J
=24
2.f/}
8r
!! Da Capo al Fine
==
*-
